svg/color/hnst.svg

<?xml version="1.0" encoding="UTF-8" ?>
<!DOCTYPE svg PUBLIC "-//W3C//DTD SVG 1.1//EN" "http://www.w3.org/Graphics/SVG/1.1/DTD/svg11.dtd">
<svg width="250pt" height="250pt" viewBox="0 0 250 250" version="1.1" xmlns="http://www.w3.org/2000/svg">
<g id="#ffffffff">
<path fill="#ffffff" opacity="1.00" d=" M 0.00 0.00 L 117.61 0.00 C 99.67 1.72 81.83 6.19 65.97 14.93 C 40.64 28.39 20.29 50.95 9.49 77.53 C 4.12 90.23 1.42 103.92 0.00 117.59 L 0.00 0.00 Z" />
<path fill="#ffffff" opacity="1.00" d=" M 130.43 0.00 L 250.00 0.00 L 250.00 116.62 C 249.35 109.92 248.29 103.27 246.84 96.70 C 240.07 67.33 222.19 40.78 197.66 23.29 C 178.09 9.27 154.42 1.32 130.43 0.00 Z" />
<path fill="#ffffff" opacity="1.00" d=" M 103.81 63.47 C 109.29 63.18 114.79 63.17 120.26 63.51 C 120.59 65.61 121.03 67.74 120.57 69.85 C 118.44 81.90 115.62 93.81 113.48 105.85 C 112.56 111.25 110.83 116.52 110.35 121.98 C 111.10 125.58 115.28 124.73 117.97 124.81 C 125.13 124.53 132.34 125.26 139.46 124.44 C 141.50 122.38 141.38 119.16 142.16 116.52 C 145.20 100.41 148.60 84.37 151.62 68.26 C 152.05 66.55 152.41 64.58 154.01 63.55 C 158.33 63.03 162.70 63.21 167.04 63.37 C 169.40 63.08 171.16 65.56 170.46 67.74 C 168.78 77.23 166.49 86.61 164.83 96.11 C 164.30 98.16 166.04 99.99 168.05 100.09 C 173.53 100.71 179.10 99.73 184.57 100.55 C 187.91 101.92 186.50 106.25 186.70 109.07 C 187.01 110.87 185.44 112.30 183.76 112.47 C 176.92 113.01 169.98 112.01 163.17 112.89 C 159.36 115.11 160.21 120.65 160.50 124.44 C 169.17 125.70 178.20 123.31 186.64 126.04 C 186.67 129.20 186.96 132.39 186.50 135.53 C 185.61 136.49 184.41 137.38 183.04 137.35 C 174.84 137.66 166.61 137.11 158.42 137.55 C 156.37 137.74 156.11 140.29 155.65 141.87 C 153.11 154.93 150.32 167.93 147.95 181.02 C 147.46 183.02 147.36 185.78 145.01 186.54 C 139.94 186.98 134.83 186.68 129.75 186.57 C 128.16 181.19 130.46 175.80 131.27 170.49 C 133.62 160.40 135.06 150.11 137.56 140.05 C 136.16 138.98 134.91 137.29 132.96 137.44 C 125.33 137.38 117.69 137.36 110.07 137.46 C 107.01 137.16 106.18 140.65 105.87 142.98 C 103.73 155.69 100.69 168.22 98.52 180.92 C 98.06 182.88 97.82 185.23 95.99 186.45 C 90.90 187.05 85.76 186.62 80.65 186.66 C 79.60 184.59 79.19 182.26 79.86 180.00 C 82.55 167.33 85.04 154.62 87.44 141.90 C 87.85 140.18 86.66 138.80 85.93 137.38 C 78.45 137.01 70.71 138.51 63.44 136.26 C 63.32 133.20 63.04 130.11 63.52 127.07 C 64.02 125.03 66.32 125.10 67.98 124.85 C 75.17 124.40 82.43 125.36 89.58 124.45 C 92.62 122.27 92.32 117.64 92.70 114.24 C 91.48 113.69 90.26 113.11 88.98 112.71 C 81.17 112.16 73.28 113.07 65.48 112.34 C 62.84 111.48 63.31 108.18 63.21 105.99 C 63.10 103.80 63.24 100.37 66.22 100.41 C 75.13 99.91 84.08 100.57 93.00 100.16 C 94.93 100.18 96.18 98.51 96.54 96.78 C 99.30 85.76 100.22 74.29 103.81 63.47 Z" />
<path fill="#ffffff" opacity="1.00" d=" M 222.42 203.42 C 238.57 183.65 247.89 158.75 250.00 133.40 L 250.00 250.00 L 139.01 250.00 C 147.67 247.53 156.72 246.58 165.19 243.42 C 187.55 235.91 207.71 221.86 222.42 203.42 Z" />
<path fill="#ffffff" opacity="1.00" d=" M 0.00 138.78 C 1.50 143.97 2.30 149.33 3.61 154.56 C 9.43 179.03 23.00 201.53 41.80 218.22 C 62.25 236.83 89.13 247.73 116.60 250.00 L 0.00 250.00 L 0.00 138.78 Z" />
</g>
<g id="#00a7e1ff">
<path fill="#00a7e1" opacity="1.00" d=" M 117.61 0.00 L 130.43 0.00 C 154.42 1.32 178.09 9.27 197.66 23.29 C 222.19 40.78 240.07 67.33 246.84 96.70 C 248.29 103.27 249.35 109.92 250.00 116.62 L 250.00 133.40 C 247.89 158.75 238.57 183.65 222.42 203.42 C 207.71 221.86 187.55 235.91 165.19 243.42 C 156.72 246.58 147.67 247.53 139.01 250.00 L 116.60 250.00 C 89.13 247.73 62.25 236.83 41.80 218.22 C 23.00 201.53 9.43 179.03 3.61 154.56 C 2.30 149.33 1.50 143.97 0.00 138.78 L 0.00 117.59 C 1.42 103.92 4.12 90.23 9.49 77.53 C 20.29 50.95 40.64 28.39 65.97 14.93 C 81.83 6.19 99.67 1.72 117.61 0.00 M 103.81 63.47 C 100.22 74.29 99.30 85.76 96.54 96.78 C 96.18 98.51 94.93 100.18 93.00 100.16 C 84.08 100.57 75.13 99.91 66.22 100.41 C 63.24 100.37 63.10 103.80 63.21 105.99 C 63.31 108.18 62.84 111.48 65.48 112.34 C 73.28 113.07 81.17 112.16 88.98 112.71 C 90.26 113.11 91.48 113.69 92.70 114.24 C 92.32 117.64 92.62 122.27 89.58 124.45 C 82.43 125.36 75.17 124.40 67.98 124.85 C 66.32 125.10 64.02 125.03 63.52 127.07 C 63.04 130.11 63.32 133.20 63.44 136.26 C 70.71 138.51 78.45 137.01 85.93 137.38 C 86.66 138.80 87.85 140.18 87.44 141.90 C 85.04 154.62 82.55 167.33 79.86 180.00 C 79.19 182.26 79.60 184.59 80.65 186.66 C 85.76 186.62 90.90 187.05 95.99 186.45 C 97.82 185.23 98.06 182.88 98.52 180.92 C 100.69 168.22 103.73 155.69 105.87 142.98 C 106.18 140.65 107.01 137.16 110.07 137.46 C 117.69 137.36 125.33 137.38 132.96 137.44 C 134.91 137.29 136.16 138.98 137.56 140.05 C 135.06 150.11 133.62 160.40 131.27 170.49 C 130.46 175.80 128.16 181.19 129.75 186.57 C 134.83 186.68 139.94 186.98 145.01 186.54 C 147.36 185.78 147.46 183.02 147.95 181.02 C 150.32 167.93 153.11 154.93 155.65 141.87 C 156.11 140.29 156.37 137.74 158.42 137.55 C 166.61 137.11 174.84 137.66 183.04 137.35 C 184.41 137.38 185.61 136.49 186.50 135.53 C 186.96 132.39 186.67 129.20 186.64 126.04 C 178.20 123.31 169.17 125.70 160.50 124.44 C 160.21 120.65 159.36 115.11 163.17 112.89 C 169.98 112.01 176.92 113.01 183.76 112.47 C 185.44 112.30 187.01 110.87 186.70 109.07 C 186.50 106.25 187.91 101.92 184.57 100.55 C 179.10 99.73 173.53 100.71 168.05 100.09 C 166.04 99.99 164.30 98.16 164.83 96.11 C 166.49 86.61 168.78 77.23 170.46 67.74 C 171.16 65.56 169.40 63.08 167.04 63.37 C 162.70 63.21 158.33 63.03 154.01 63.55 C 152.41 64.58 152.05 66.55 151.62 68.26 C 148.60 84.37 145.20 100.41 142.16 116.52 C 141.38 119.16 141.50 122.38 139.46 124.44 C 132.34 125.26 125.13 124.53 117.97 124.81 C 115.28 124.73 111.10 125.58 110.35 121.98 C 110.83 116.52 112.56 111.25 113.48 105.85 C 115.62 93.81 118.44 81.90 120.57 69.85 C 121.03 67.74 120.59 65.61 120.26 63.51 C 114.79 63.17 109.29 63.18 103.81 63.47 Z" />
</g>
</svg>

<?xml version="1.0" encoding="utf-8"?>
<!-- Generator: Adobe Illustrator 26.0.3, SVG Export Plug-In . SVG Version: 6.00 Build 0)  -->
<svg version="1.1" id="Layer_1" xmlns="http://www.w3.org/2000/svg" xmlns:xlink="http://www.w3.org/1999/xlink" x="0px" y="0px"
	 viewBox="0 0 250 250" style="enable-background:new 0 0 250 250;" xml:space="preserve">
<style type="text/css">
	.st0{fill:#FFFFFF;}
	.st1{fill:#00A7E1;}
</style>
<g id="_x23_ffffffff">
	<path class="st0" d="M103.8,63.5c5.5-0.3,11-0.3,16.5,0c0.3,2.1,0.8,4.2,0.3,6.3c-2.1,12.1-4.9,24-7.1,36
		c-0.9,5.4-2.7,10.7-3.1,16.1c0.8,3.6,4.9,2.8,7.6,2.8c7.2-0.3,14.4,0.5,21.5-0.4c2-2.1,1.9-5.3,2.7-7.9c3-16.1,6.4-32.1,9.5-48.3
		c0.4-1.7,0.8-3.7,2.4-4.7c4.3-0.5,8.7-0.3,13-0.2c2.4-0.3,4.1,2.2,3.4,4.4c-1.7,9.5-4,18.9-5.6,28.4c-0.5,2.1,1.2,3.9,3.2,4
		c5.5,0.6,11.1-0.4,16.5,0.5c3.3,1.4,1.9,5.7,2.1,8.5c0.3,1.8-1.3,3.2-2.9,3.4c-6.8,0.5-13.8-0.5-20.6,0.4c-3.8,2.2-3,7.8-2.7,11.6
		c8.7,1.3,17.7-1.1,26.1,1.6c0,3.2,0.3,6.3-0.1,9.5c-0.9,1-2.1,1.9-3.5,1.8c-8.2,0.3-16.4-0.2-24.6,0.2c-2.1,0.2-2.3,2.7-2.8,4.3
		c-2.5,13.1-5.3,26.1-7.7,39.2c-0.5,2-0.6,4.8-2.9,5.5c-5.1,0.4-10.2,0.1-15.3,0c-1.6-5.4,0.7-10.8,1.5-16.1
		c2.3-10.1,3.8-20.4,6.3-30.4c-1.4-1.1-2.6-2.8-4.6-2.6c-7.6-0.1-15.3-0.1-22.9,0c-3.1-0.3-3.9,3.2-4.2,5.5
		c-2.1,12.7-5.2,25.2-7.4,37.9c-0.5,2-0.7,4.3-2.5,5.5c-5.1,0.6-10.2,0.2-15.3,0.2c-1.1-2.1-1.5-4.4-0.8-6.7
		c2.7-12.7,5.2-25.4,7.6-38.1c0.4-1.7-0.8-3.1-1.5-4.5c-7.5-0.4-15.2,1.1-22.5-1.1c-0.1-3.1-0.4-6.1,0.1-9.2c0.5-2,2.8-2,4.5-2.2
		c7.2-0.4,14.4,0.5,21.6-0.4c3-2.2,2.7-6.8,3.1-10.2c-1.2-0.5-2.4-1.1-3.7-1.5c-7.8-0.5-15.7,0.4-23.5-0.4c-2.6-0.9-2.2-4.2-2.3-6.3
		c-0.1-2.2,0-5.6,3-5.6c8.9-0.5,17.9,0.2,26.8-0.2c1.9,0,3.2-1.7,3.5-3.4C99.3,85.8,100.2,74.3,103.8,63.5z"/>
</g>
<g id="_x23_00a7e1ff">
	<path class="st1" d="M117.6,0h12.8c24,1.3,47.7,9.3,67.2,23.3c24.5,17.5,42.4,44,49.2,73.4c1.4,6.6,2.5,13.2,3.2,19.9v16.8
		c-2.1,25.4-11.4,50.2-27.6,70c-14.7,18.4-34.9,32.5-57.2,40c-8.5,3.2-17.5,4.1-26.2,6.6h-22.4c-27.5-2.3-54.3-13.2-74.8-31.8
		C23,201.5,9.4,179,3.6,154.6C2.3,149.3,1.5,144,0,138.8v-21.2c1.4-13.7,4.1-27.4,9.5-40.1C20.3,51,40.6,28.4,66,14.9
		C81.8,6.2,99.7,1.7,117.6,0 M103.8,63.5c-3.6,10.8-4.5,22.3-7.3,33.3c-0.4,1.7-1.6,3.4-3.5,3.4c-8.9,0.4-17.9-0.2-26.8,0.2
		c-3,0-3.1,3.4-3,5.6c0.1,2.2-0.4,5.5,2.3,6.3c7.8,0.7,15.7-0.2,23.5,0.4c1.3,0.4,2.5,1,3.7,1.5c-0.4,3.4-0.1,8-3.1,10.2
		c-7.2,0.9-14.4,0-21.6,0.4c-1.7,0.2-4,0.2-4.5,2.2c-0.5,3-0.2,6.1-0.1,9.2c7.3,2.2,15,0.8,22.5,1.1c0.7,1.4,1.9,2.8,1.5,4.5
		c-2.4,12.7-4.9,25.4-7.6,38.1c-0.7,2.3-0.3,4.6,0.8,6.7c5.1,0,10.2,0.4,15.3-0.2c1.8-1.2,2.1-3.6,2.5-5.5
		c2.2-12.7,5.2-25.2,7.4-37.9c0.3-2.3,1.1-5.8,4.2-5.5c7.6-0.1,15.3-0.1,22.9,0c1.9-0.2,3.2,1.5,4.6,2.6
		c-2.5,10.1-3.9,20.3-6.3,30.4c-0.8,5.3-3.1,10.7-1.5,16.1c5.1,0.1,10.2,0.4,15.3,0c2.4-0.8,2.5-3.5,2.9-5.5
		c2.4-13.1,5.2-26.1,7.7-39.2c0.5-1.6,0.7-4.1,2.8-4.3c8.2-0.4,16.4,0.1,24.6-0.2c1.4,0,2.6-0.9,3.5-1.8c0.5-3.1,0.2-6.3,0.1-9.5
		c-8.4-2.7-17.5-0.3-26.1-1.6c-0.3-3.8-1.1-9.3,2.7-11.6c6.8-0.9,13.8,0.1,20.6-0.4c1.7-0.2,3.2-1.6,2.9-3.4
		c-0.2-2.8,1.2-7.2-2.1-8.5c-5.5-0.8-11,0.2-16.5-0.5c-2-0.1-3.8-1.9-3.2-4c1.7-9.5,3.9-18.9,5.6-28.4c0.7-2.2-1.1-4.7-3.4-4.4
		c-4.3-0.2-8.7-0.3-13,0.2c-1.6,1-2,3-2.4,4.7c-3,16.1-6.4,32.2-9.5,48.3c-0.8,2.6-0.7,5.9-2.7,7.9c-7.1,0.8-14.3,0.1-21.5,0.4
		c-2.7-0.1-6.9,0.8-7.6-2.8c0.5-5.5,2.2-10.7,3.1-16.1c2.1-12,5-23.9,7.1-36c0.5-2.1,0-4.2-0.3-6.3
		C114.8,63.2,109.3,63.2,103.8,63.5z"/>
</g>
</svg>
